packages/foundations/assets/icons/functional/images/devices/camera_14_filled.svg

<svg width="14" height="14" viewBox="0 0 14 14" fill="none" xmlns="http://www.w3.org/2000/svg">
<g clip-path="url(#clip0_2204_2744)">
<path fill-rule="evenodd" clip-rule="evenodd" d="M8.39208 2.8C8.81098 2.8 9.20787 2.98758 9.4738 3.31125L10.2074 4.2049L11.1957 4.20217C11.9338 4.1999 12.5402 4.76914 12.5959 5.49338L12.6 5.59785V9.8C12.6 10.5732 11.9732 11.2 11.2 11.2H2.80002C2.02683 11.2 1.40002 10.5732 1.40002 9.8V5.60624C1.40002 4.83304 2.02683 4.20624 2.80002 4.20624L3.80872 4.2056L4.51746 3.32361C4.75661 3.02569 5.10578 2.8399 5.48267 2.80573L5.60921 2.8H8.39208ZM7.00002 5.95C6.22683 5.95 5.60002 6.5768 5.60002 7.35C5.60002 8.1232 6.22683 8.75 7.00002 8.75C7.77322 8.75 8.40002 8.1232 8.40002 7.35C8.40002 6.5768 7.77322 5.95 7.00002 5.95Z" fill="#1A1C1F"/>
</g>
<defs>
<clipPath id="clip0_2204_2744">
<rect width="14" height="14" fill="white"/>
</clipPath>
</defs>
</svg>

<svg xmlns="http://www.w3.org/2000/svg" width="14" height="14" fill="none"><g clip-path="url(#a)"><path fill="#1A1C1F" fill-rule="evenodd" d="M8.392 2.8a1.4 1.4 0 0 1 1.082.511l.733.894.989-.003a1.4 1.4 0 0 1 1.4 1.291l.004.105V9.8a1.4 1.4 0 0 1-1.4 1.4H2.8a1.4 1.4 0 0 1-1.4-1.4V5.606a1.4 1.4 0 0 1 1.4-1.4h1.009l.708-.882a1.4 1.4 0 0 1 .966-.518l.126-.006zM7 5.95a1.4 1.4 0 1 0 0 2.8 1.4 1.4 0 0 0 0-2.8" clip-rule="evenodd"/></g><defs><clipPath id="a"><path fill="#fff" d="M0 0h14v14H0z"/></clipPath></defs></svg>
